icons/trash.svg

<svg xmlns="http://www.w3.org/2000/svg" viewBox="0 0 51.26 51.26">
  <g fill="#FFFFFF">
    <path d="M39.34 10.17H31V8.6a2.16 2.16 0 0 0-2.16-2.16h-6.57a2.16 2.16 0 0 0-2.16 2.16v1.57h-8.19a1.72 1.72 0 0 0-1.72 1.72v1.31h30.85v-1.31a1.71 1.71 0 0 0-1.71-1.72Zm-10.34 0h-6.89V8.6a.16.16 0 0 1 .16-.16h6.59a.16.16 0 0 1 .14.16ZM14.49 43.23a1.05 1.05 0 0 0 1.07 1h20a1.05 1.05 0 0 0 1.07-1l2.55-29H11.94Zm18.78-25.76a.63.63 0 0 1 1.25.08L33 40.08a.63.63 0 0 1-.63.58.63.63 0 0 1-.58-.67ZM25 17.29a.63.63 0 0 1 1.25 0V40A.63.63 0 0 1 25 40Zm-7.8-.4a.61.61 0 0 1 .67.58L19.42 40a.63.63 0 0 1-.58.67.63.63 0 0 1-.63-.58l-1.59-22.54a.62.62 0 0 1 .58-.66Z"/>
  </g>
</svg>

<svg xmlns="http://www.w3.org/2000/svg" viewBox="0 0 51.26 51.26"><defs><style>.cls-1{fill:#fff;}</style></defs><g id="Layer_2" data-name="Layer 2"><path class="cls-1" d="M39.34,10.17H31V8.6a2.16,2.16,0,0,0-2.16-2.16H22.27A2.16,2.16,0,0,0,20.11,8.6v1.57H11.92a1.72,1.72,0,0,0-1.72,1.72V13.2H41.05V11.89A1.71,1.71,0,0,0,39.34,10.17ZM29,10.17H22.11V8.6a.16.16,0,0,1,.16-.16h6.59A.16.16,0,0,1,29,8.6Z"/><path class="cls-1" d="M14.49,43.23a1.05,1.05,0,0,0,1.07,1h20a1.05,1.05,0,0,0,1.07-1l2.55-29H11.94ZM33.27,17.47a.63.63,0,0,1,1.25.08L33,40.08a.63.63,0,0,1-.63.58h0a.63.63,0,0,1-.58-.67ZM25,17.29a.63.63,0,0,1,1.25,0V40A.63.63,0,0,1,25,40Zm-7.8-.4a.61.61,0,0,1,.67.58L19.42,40a.63.63,0,0,1-.58.67h0a.63.63,0,0,1-.63-.58L16.62,17.55A.62.62,0,0,1,17.2,16.89Z"/></g></svg>
